!!!OTL: Sijige
!!!ARE: Asia, China,ÿShandong Licheng
!! III, 330
!!!SCT: C1759
!!!YEM: Copyright 1995, estate of Helmut Schaffrath.
**kern
*ICvox
*Ivox
*M2/4
*k[b-]
*F:
{8g
16g
16a
8g
8e
=1
2f}
=2
{4cc
16dd
16ff
16dd
16cc
=3
8.b-
16dd
8cc
8a
=4
8g
16g
16a
8g
8e
=5
2f}
=6
{8g
8g
8g
8a
=7
8cc
16dd
16cc
8b-
8a
=8
8cc
8g
16a
16cc
16a
16g
=9
2f}
=10
{8.g
16a
16cc
16dd
16cc
16a
=11
8g
16cc
16a
16g
16a
16g
16f
=12
16d
16c
4d
8f
=13
8.g
16a
8f
16f
16d
=14
4c
16d
16c
16d
16f
=15
2cc}
==
!!!AGN: Xiaodiao, Dieduanqiao diao
!!!AMT: simple duple
!!!AIN: vox
!!!EED: Helmut Schaffrath
!!!EEV: 1.0
*-
